src/images/itunes.svg

<svg fill="none" height="108" viewBox="0 0 108 108" width="108" xmlns="http://www.w3.org/2000/svg"><path d="m107.973 27.5523c0-3.3208-.293-6.6147-1.08-9.8546-1.427-5.8947-4.779-10.39451-9.8097-13.69287-2.5828-1.68293-5.4177-2.72688-8.4461-3.271361-2.3264-.418482-4.6708-.607474-7.0377-.6749715-.18-.0134994-.3735-.0449981-.558-.0584975h-54.1057c-.6839.0449981-1.3634.0764967-2.0474.116995-3.3613.193492-6.7047.553476-9.868 1.804425-6.01179 2.3849-10.3496 6.53372-12.89199 12.50948-.86396 2.0159-1.313945 4.1623-1.633431 6.3357-.251989 1.7639-.3959832 3.5324-.4499809 5.3098 0 .144-.0314987.279-.0449981.4185v55.0011c.0449981.63.0764967 1.2735.121495 1.9079.22499 3.6674.69297 7.3077 2.236405 10.6781 2.92487 6.39 7.8207 10.588 14.5524 12.608 1.8899.572 3.8518.842 5.8182 1.026 2.4974.239 4.9948.27 7.5012.27h49.6329c2.3624 0 4.7158-.153 7.0647-.45 3.7033-.477 7.1862-1.575 10.3315-3.644 3.7802-2.489 6.6242-5.7917 8.4592-9.936.837-1.8899 1.319-3.9149 1.665-5.9578.509-3.0373.621-6.1107.617-9.1796-.009-17.0992 0-34.176-.014-51.2663zm-28.9024 17.9542v25.7029c0 1.8765-.261 3.7214-1.0979 5.4268-1.305 2.6549-3.4199 4.3288-6.2458 5.1298-1.5749.45-3.1768.7065-4.8148.7785-4.2748.2025-7.9781-2.6999-8.7431-6.9117-.639-3.4784 1.0215-7.3077 4.6708-9.0987 1.4534-.7199 3.0149-1.1249 4.5808-1.4579 1.7009-.369 3.4109-.6885 5.1028-1.0799 1.2329-.2835 2.0564-1.035 2.2949-2.3219.063-.2835.09-.585.09-.8685 0-8.1672 0-16.3343-.009-24.4925 0-.2789-.045-.5624-.117-.8324-.18-.675-.675-1.0935-1.3679-1.053-.72.045-1.431.1575-2.1375.297-3.4198.675-6.8397 1.3635-10.2595 2.0519l-10.4666 2.1149-6.1827 1.251c-.072.0135-.144.045-.216.0585-1.2464.3465-1.6964.9134-1.7549 2.2049-.009.189 0 .387 0 .585-.009 11.7085 0 23.417-.0135 35.121 0 1.8899-.2115 3.7618-.9675 5.5212-1.2509 2.8799-3.4648 4.6798-6.4527 5.5483-1.5749.45-3.1949.72-4.8373.774-4.3198.1619-7.8972-2.6999-8.6396-6.9478-.63-3.6538 1.0349-7.5821 5.1928-9.3371 1.6064-.6749 3.2848-1.0439 4.9857-1.3949 1.2915-.27 2.5874-.522 3.8699-.7965 1.7234-.3735 2.6234-1.4534 2.6999-3.2128v-.675c0-13.3194 0-26.6479.009-39.9673 0-.5535.0585-1.1249.189-1.6649.3149-1.2825 1.2284-2.0159 2.4568-2.3309 1.1475-.297 2.3174-.504 3.4829-.7425 3.2984-.675 6.5967-1.3319 9.8996-1.9979l10.2145-2.0699c3.0149-.603 6.0298-1.215 9.0446-1.8134.99-.1935 1.9935-.396 2.9879-.477 1.395-.1125 2.3534.765 2.4929 2.1689.036.3285.054.666.054 1.0035.009 8.5946.009 17.1982 0 25.7928z" fill="#f1f1f1"/></svg>

<svg width="108" height="108" viewBox="0 0 108 108" fill="none" xmlns="http://www.w3.org/2000/svg">
<path d="M107.973 27.5523C107.973 24.2315 107.68 20.9376 106.893 17.6977C105.466 11.803 102.114 7.30319 97.0833 4.00483C94.5005 2.3219 91.6656 1.27795 88.6372 0.733469C86.3108 0.314987 83.9664 0.125995 81.5995 0.0584975C81.4195 0.0449981 81.226 0.0134994 81.0415 0H26.9358C26.2519 0.0449981 25.5724 0.0764967 24.8884 0.116995C21.5271 0.310487 18.1837 0.670471 15.0204 1.92142C9.00861 4.30632 4.6708 8.45514 2.12841 14.4309C1.26445 16.4468 0.814465 18.5932 0.494979 20.7666C0.24299 22.5305 0.0989958 24.299 0.0449981 26.0764C0.0449981 26.2204 0.0134994 26.3554 0 26.4949V81.496C0.0449981 82.126 0.0764967 82.7695 0.121495 83.4039C0.346485 87.0713 0.814465 90.7116 2.3579 94.082C5.28277 100.472 10.1786 104.67 16.9103 106.69C18.8002 107.262 20.7621 107.532 22.7285 107.716C25.2259 107.955 27.7233 107.986 30.2297 107.986H79.8626C82.225 107.986 84.5784 107.833 86.9273 107.536C90.6306 107.059 94.1135 105.961 97.2588 103.892C101.039 101.403 103.883 98.1003 105.718 93.956C106.555 92.0661 107.037 90.0411 107.383 87.9982C107.892 84.9609 108.004 81.8875 108 78.8186C107.991 61.7194 108 44.6426 107.986 27.5523H107.973ZM79.0706 45.5065V71.2094C79.0706 73.0859 78.8096 74.9308 77.9727 76.6362C76.6677 79.2911 74.5528 80.965 71.7269 81.766C70.152 82.216 68.5501 82.4725 66.9121 82.5445C62.6373 82.747 58.934 79.8446 58.169 75.6328C57.53 72.1544 59.1905 68.3251 62.8398 66.5341C64.2932 65.8142 65.8547 65.4092 67.4206 65.0762C69.1215 64.7072 70.8315 64.3877 72.5234 63.9963C73.7563 63.7128 74.5798 62.9613 74.8183 61.6744C74.8813 61.3909 74.9083 61.0894 74.9083 60.8059C74.9083 52.6387 74.9083 44.4716 74.8993 36.3134C74.8993 36.0345 74.8543 35.751 74.7823 35.481C74.6023 34.806 74.1073 34.3875 73.4144 34.428C72.6944 34.473 71.9834 34.5855 71.2769 34.725C67.8571 35.4 64.4372 36.0885 61.0174 36.7769L50.5508 38.8918L44.3681 40.1428C44.2961 40.1563 44.2241 40.1878 44.1521 40.2013C42.9057 40.5478 42.4557 41.1147 42.3972 42.4062C42.3882 42.5952 42.3972 42.7932 42.3972 42.9912C42.3882 54.6997 42.3972 66.4082 42.3837 78.1122C42.3837 80.0021 42.1722 81.874 41.4162 83.6334C40.1653 86.5133 37.9514 88.3132 34.9635 89.1817C33.3886 89.6317 31.7686 89.9017 30.1262 89.9557C25.8064 90.1176 22.229 87.2558 21.4866 83.0079C20.8566 79.3541 22.5215 75.4258 26.6794 73.6708C28.2858 72.9959 29.9642 72.6269 31.6651 72.2759C32.9566 72.0059 34.2525 71.7539 35.535 71.4794C37.2584 71.1059 38.1584 70.026 38.2349 68.2666V67.5916C38.2349 54.2722 38.2349 40.9437 38.2439 27.6243C38.2439 27.0708 38.3024 26.4994 38.4329 25.9594C38.7478 24.6769 39.6613 23.9435 40.8897 23.6285C42.0372 23.3315 43.2071 23.1245 44.3726 22.886C47.671 22.211 50.9693 21.5541 54.2722 20.8881L64.4867 18.8182C67.5016 18.2152 70.5165 17.6032 73.5313 17.0048C74.5213 16.8113 75.5248 16.6088 76.5192 16.5278C77.9142 16.4153 78.8726 17.2928 79.0121 18.6967C79.0481 19.0252 79.0661 19.3627 79.0661 19.7002C79.0751 28.2948 79.0751 36.8984 79.0661 45.493L79.0706 45.5065Z" fill="#F1F1F1"/>
</svg>
